icons/fill-new-drink-goblet.svg

<svg xmlns="http://www.w3.org/2000/svg" width="32px" height="32px" viewBox="0 0 32 32" version="1.1">
    <title>fill-new-drink-goblet</title>
    <g id="fill-new-drink-goblet" stroke-width="1" fill-rule="evenodd">
        <path d="M12,30 C11.4477153,30 11,29.5522847 11,29 C11,28.4477153 11.4477153,28 12,28 L14.9997566,28 L15.0001265,19.9641768 C10.555424,19.6387163 7.70213008,17.1139766 6.59898209,13.1426439 C5.65573238,9.74694492 6.13458088,5.49477026 7.60557281,2.5527864 C7.77496482,2.21400238 8.12122794,2 8.5,2 L23.5,2 C23.8787721,2 24.2250352,2.21400238 24.3944272,2.5527864 C25.8654191,5.49477026 26.3442676,9.74694492 25.4010179,13.1426439 C24.2979532,17.1136768 21.4450068,19.6383351 17.0008801,19.964103 L16.9997566,28 L20,28 C20.5522847,28 21,28.4477153 21,29 C21,29.5522847 20.5522847,30 20,30 L12,30 Z M22.8591111,4 L9.14011111,4 L9.11993467,4.04711379 C8.39875431,5.77101546 8.03300092,7.93812072 8.12746678,10.0006731 L23.8725226,10.000904 C23.9670264,7.93828247 23.6012726,5.77107979 22.8800653,4.04711379 L22.8591111,4 Z" id="&#24418;&#29366;" fill-rule="nonzero" />
    </g>
</svg>

<svg xmlns="http://www.w3.org/2000/svg" viewBox="0 0 32 32"><path fill="currentColor" d="M12 30a1 1 0 0 1 0-2h3v-8.036c-4.445-.325-7.298-2.85-8.401-6.821-.943-3.396-.464-7.648 1.007-10.59A1 1 0 0 1 8.5 2h15a1 1 0 0 1 .894.553c1.471 2.942 1.95 7.194 1.007 10.59-1.103 3.97-3.956 6.495-8.4 6.821L17 28h3a1 1 0 0 1 0 2zM22.86 4H9.14l-.02.047c-.721 1.724-1.087 3.891-.993 5.954h15.746c.094-2.063-.272-4.23-.993-5.954z"/></svg>
